X: 233	# 64
T: Possum In The Simmon Tree
S: Viola Ruth "Pioneer Western Folk Tunes" 1948 p.23 #3
R: reel
Z: 2019 John Chambers <jc:trillian.mit.edu>
N: Bar 4's 2nd half has 12 16th notes; not fixed.
N: (The 2nd half probably needs another beam above all 5 notes.)
M: 2/4
L: 1/16
Q: "Quadrille rhythm"
K: F
V: 1 name="64"
(3(CDE) |\
FEFG ABcA | BABc defe | c=Bcd cAFG | AGFA G2E2D2(3(CDE) |\
FEFG ABcA | BABc defd |
c=Bcd cAFG | AFGE F2c2 ||\
e^def g^fge | =fefd c3c | edef g^fge | =fefd c3A |
BABc defd | cAFA c3f | edcB AGFE | F2A2 "^Fine"F4 ||\
"_gliss"CJF2f cdcA | BABc deKf2 |
"_gliss"CJF2f cdcB | GFGA GEC2 |\
"_gliss"CJF2f cdcA | BABc deKfd | cBcd cAFG | AGFE "^D.C."F4 |]
